proprietary/assets/icons/energie-en-chemie/gevaarlijke-stoffen.svg

<svg enable-background="new 0 0 64 64" height="64" viewBox="0 0 64 64" width="64" xmlns="http://www.w3.org/2000/svg"><path d="m0 0h64v64h-64z" fill="none"/><path d="m58.6 50.5-24.2-41c-.6-.9-1.5-1.5-2.6-1.5-1.1 0-2 .6-2.6 1.5l-23.8 41c-.5.9-.5 2.1 0 3s1.5 1.5 2.6 1.5h48c1.1 0 2.1-.6 2.6-1.5s.5-2.1 0-3zm-46.6-.5 19.8-34.1 20.1 34.1zm12.2-15.8c-.7 4.5.4 7.3 3.2 8.9.1.6-.1 2 .7 3.4 1.2 2 6.6 2 7.8 0 .8-1.4.6-2.8.7-3.4 2.8-1.6 3.9-4.4 3.2-8.9-.6-4.2-4.2-6.2-7.8-6.2s-7.2 2-7.8 6.2zm11.3 1.3c1.7.2 2.2 1.3 2 2.4-.1 1.2-.8 1.8-2.3 1.7-1.6-.2-2.1-1.1-2.1-2.2.1-1.4.9-2.1 2.4-1.9zm-3.5 5.2c.8-.1 2 1.8 1.5 2.6-.2.4-.9.5-1.5.5s-1.3-.1-1.5-.5c-.5-.8.7-2.7 1.5-2.6zm-3.5-5.2c1.6-.2 2.3.5 2.3 1.9 0 1.1-.5 2-2.1 2.2-1.4.2-2.1-.5-2.3-1.7-.1-1.2.3-2.2 2.1-2.4z"/></svg>

<?xml version="1.0" encoding="utf-8"?>
<!-- Generator: Adobe Illustrator 21.0.2, SVG Export Plug-In . SVG Version: 6.00 Build 0)  -->
<!DOCTYPE svg PUBLIC "-//W3C//DTD SVG 1.1//EN" "http://www.w3.org/Graphics/SVG/1.1/DTD/svg11.dtd">
<svg version="1.1" xmlns="http://www.w3.org/2000/svg" xmlns:xlink="http://www.w3.org/1999/xlink" x="0px" y="0px" width="64px"
	 height="64px" viewBox="0 0 64 64" style="enable-background:new 0 0 64 64;" xml:space="preserve">
<style type="text/css">
	.st0{fill:none;}
</style>
<g id="_x36_4px_Box">
	<rect class="st0" width="64" height="64"/>
</g>
<g id="Icon">
	<g>
		<g>
			<path d="M58.6,50.5l-24.2-41C33.8,8.6,32.9,8,31.8,8h0c-1.1,0-2,0.6-2.6,1.5l-23.8,41c-0.5,0.9-0.5,2.1,0,3C5.9,54.4,6.9,55,8,55
				h48c1.1,0,2.1-0.6,2.6-1.5C59.1,52.6,59.1,51.4,58.6,50.5z M12,50l19.8-34.1L51.9,50H12z M24.2,34.2c-0.7,4.5,0.4,7.3,3.2,8.9
				c0.1,0.6-0.1,2,0.7,3.4c1.2,2,6.6,2,7.8,0c0.8-1.4,0.6-2.8,0.7-3.4c2.8-1.6,3.9-4.4,3.2-8.9C39.2,30,35.6,28,32,28
				C28.4,28,24.8,30,24.2,34.2z M35.5,35.5c1.7,0.2,2.2,1.3,2,2.4c-0.1,1.2-0.8,1.8-2.3,1.7c-1.6-0.2-2.1-1.1-2.1-2.2
				C33.2,36,34,35.3,35.5,35.5z M32,40.7c0.8-0.1,2,1.8,1.5,2.6c-0.2,0.4-0.9,0.5-1.5,0.5c-0.6,0-1.3-0.1-1.5-0.5
				C30,42.5,31.2,40.6,32,40.7z M28.5,35.5c1.6-0.2,2.3,0.5,2.3,1.9c0,1.1-0.5,2-2.1,2.2c-1.4,0.2-2.1-0.5-2.3-1.7
				C26.3,36.7,26.7,35.7,28.5,35.5z"/>
		</g>
	</g>
</g>
</svg>
